public/img/old-svg/routes.svg

<svg width="33" height="34" viewBox="0 0 33 34" fill="none" xmlns="http://www.w3.org/2000/svg">
<path d="M8.55557 7.17578C3.83793 7.17578 0 11.13 0 15.9906C0 18.3084 1.05155 21.692 2.67841 24.6105C4.53202 27.9354 6.67393 29.8424 8.55557 29.8424C10.4372 29.8424 12.5791 27.9354 14.4327 24.6105C16.0596 21.692 17.1111 18.3083 17.1111 15.9906C17.1111 11.13 13.2732 7.17578 8.55557 7.17578ZM8.55557 28.5832C5.90049 28.5832 1.22222 21.3034 1.22222 15.9906C1.22222 11.8246 4.51172 8.43504 8.55557 8.43504C12.5994 8.43504 15.8889 11.8246 15.8889 15.9906C15.8889 21.3034 11.2107 28.5832 8.55557 28.5832Z" fill="white"/>
<path d="M8.5551 11.583C6.19656 11.583 4.27734 13.5601 4.27734 15.9904C4.27734 18.4207 6.19663 20.3978 8.5551 20.3978C10.9136 20.3978 12.8329 18.4207 12.8329 15.9904C12.8329 13.5601 10.9136 11.583 8.5551 11.583ZM8.5551 19.1385C6.87036 19.1385 5.49957 17.7261 5.49957 15.9904C5.49957 14.2546 6.87042 12.8423 8.5551 12.8423C10.2398 12.8423 11.6106 14.2546 11.6106 15.9904C11.6106 17.7262 10.2398 19.1385 8.5551 19.1385Z" fill="white"/>
<path d="M26.8885 0.879395C23.519 0.879395 20.7773 3.70378 20.7773 7.1757C20.7773 10.3457 24.4911 16.6201 26.8885 16.6201C29.2858 16.6201 32.9996 10.3457 32.9996 7.1757C32.9996 3.70385 30.258 0.879395 26.8885 0.879395ZM26.8885 15.3609C25.6054 15.3609 21.9996 10.1938 21.9996 7.1757C21.9996 4.39833 24.1928 2.13866 26.8885 2.13866C29.5842 2.13866 31.7774 4.39833 31.7774 7.1757C31.7774 10.1938 28.1716 15.3609 26.8885 15.3609Z" fill="white"/>
<path d="M26.8895 4.02783C25.2048 4.02783 23.834 5.44016 23.834 7.17595C23.834 8.91175 25.2048 10.3241 26.8895 10.3241C28.5743 10.3241 29.945 8.91168 29.945 7.17595C29.9451 5.44016 28.5743 4.02783 26.8895 4.02783ZM26.8895 9.06488C25.8786 9.06488 25.0562 8.2176 25.0562 7.17602C25.0562 6.13444 25.8786 5.28716 26.8895 5.28716C27.9005 5.28716 28.7228 6.13444 28.7228 7.17602C28.7229 8.21754 27.9005 9.06488 26.8895 9.06488Z" fill="white"/>
<path d="M22.3915 24.3218C21.6551 23.69 21.3161 23.0238 21.3537 22.285C21.4372 20.6378 23.4173 18.9242 24.1729 18.4031C24.4528 18.2097 24.5286 17.819 24.3412 17.53C24.1539 17.2406 23.7736 17.1623 23.4944 17.3556C23.3625 17.446 20.2687 19.6002 20.1333 22.2159C20.0736 23.3633 20.5701 24.3975 21.6085 25.2891C23.8746 27.2348 25.1313 29.2042 24.8097 30.3067C24.5352 31.2466 23.0933 31.6022 21.9326 31.7354C16.6731 32.3383 12.5045 30.541 12.4622 30.5229C12.1513 30.3855 11.7932 30.5349 11.6607 30.8543C11.5282 31.174 11.6715 31.5436 11.9817 31.6804C12.1357 31.7487 15.3011 33.1204 19.7084 33.1204C20.4609 33.1204 21.2511 33.0804 22.0675 32.9867C24.2893 32.7324 25.6053 31.9527 25.9801 30.6692C26.6431 28.3965 24.016 25.7169 22.3915 24.3218Z" fill="white"/>
</svg>

<svg width="33" height="34" viewBox="0 0 33 34" fill="none" xmlns="http://www.w3.org/2000/svg"><path d="M8.556 7.176C3.838 7.176 0 11.13 0 15.99c0 2.317 1.052 5.701 2.678 8.62 1.854 3.324 3.996 5.231 5.878 5.231 1.881 0 4.023-1.907 5.877-5.232 1.627-2.918 2.678-6.302 2.678-8.62 0-4.86-3.838-8.814-8.555-8.814zm0 21.407c-2.656 0-7.334-7.28-7.334-12.592 0-4.166 3.29-7.556 7.334-7.556 4.043 0 7.333 3.39 7.333 7.556 0 5.312-4.678 12.592-7.333 12.592z" fill="#fff"/><path d="M8.555 11.583c-2.358 0-4.278 1.977-4.278 4.407 0 2.43 1.92 4.408 4.278 4.408 2.359 0 4.278-1.977 4.278-4.408 0-2.43-1.92-4.407-4.278-4.407zm0 7.556c-1.685 0-3.055-1.413-3.055-3.149 0-1.735 1.37-3.148 3.055-3.148s3.056 1.413 3.056 3.148c0 1.736-1.371 3.149-3.056 3.149zM26.889.88c-3.37 0-6.112 2.824-6.112 6.296 0 3.17 3.714 9.444 6.111 9.444 2.398 0 6.112-6.274 6.112-9.444C33 3.704 30.258.879 26.889.879zm0 14.48c-1.284 0-4.89-5.166-4.89-8.184 0-2.778 2.194-5.037 4.89-5.037 2.695 0 4.888 2.26 4.888 5.037 0 3.018-3.605 8.185-4.889 8.185z" fill="#fff"/><path d="M26.89 4.028c-1.685 0-3.056 1.412-3.056 3.148 0 1.736 1.37 3.148 3.056 3.148 1.684 0 3.055-1.412 3.055-3.148 0-1.736-1.37-3.148-3.055-3.148zm0 5.037c-1.011 0-1.834-.847-1.834-1.889s.823-1.889 1.834-1.889c1.01 0 1.833.847 1.833 1.889S27.9 9.065 26.89 9.065zm-4.498 15.257c-.737-.632-1.076-1.298-1.038-2.037.083-1.647 2.063-3.36 2.819-3.882a.642.642 0 00.168-.873.6.6 0 00-.847-.174c-.131.09-3.225 2.244-3.36 4.86-.06 1.147.436 2.181 1.474 3.073 2.267 1.946 3.523 3.915 3.202 5.018-.275.94-1.717 1.295-2.877 1.428-5.26.603-9.428-1.194-9.47-1.212a.603.603 0 00-.802.331c-.133.32.01.69.32.826.155.069 3.32 1.44 7.727 1.44a20.7 20.7 0 002.36-.133c2.221-.255 3.537-1.034 3.912-2.318.663-2.273-1.964-4.952-3.588-6.347z" fill="#fff"/></svg>
